icons/ticket-help-outline.svg

<svg xmlns="http://www.w3.org/2000/svg" width="24" height="24" viewBox="0 0 24 24">
  <path d="M20,4 C21.6568542,4 23,5.34314575 23,7 L23,7 L23,10 C23,10.5522847 22.5522847,11 22,11 L22,11 L21,11 C20.4756765,11 20.041054,11.4054732 20.0048111,11.8874652 L20.0048111,11.8874652 L20,12 C20,12.5243235 20.4054732,12.958946 20.8874652,12.9951889 L20.8874652,12.9951889 L21,13 L22,13 C22.5522847,13 23,13.4477153 23,14 L23,14 L23,17 C23,18.6568542 21.6568542,20 20,20 L20,20 L4,20 C2.34314575,20 1,18.6568542 1,17 L1,17 L1,14 C1,13.4477153 1.44771525,13 2,13 L2,13 L3,13 C3.52432346,13 3.95894602,12.5945268 3.99518895,12.1125348 L3.99518895,12.1125348 L4,12 C4,11.4756765 3.59452679,11.041054 3.11253483,11.0048111 L3.11253483,11.0048111 L3,11 L2,11 C1.44771525,11 1,10.5522847 1,10 L1,10 L1,7 C1,5.34314575 2.34314575,4 4,4 L4,4 Z M20,6 L4,6 C3.44771525,6 3,6.44771525 3,7 L3,7 L3,9 L3.22283965,9.00819622 C4.78446558,9.12340873 6,10.4263275 5.99932532,12.0367275 L5.99932532,12.0367275 L5.99180378,12.2228396 C5.87659127,13.7844656 4.57367247,15 3,15 L3,15 L3,17 C3,17.5128358 3.38604019,17.9355072 3.88337887,17.9932723 L3.88337887,17.9932723 L4,18 L20,18 C20.5522847,18 21,17.5522847 21,17 L21,17 L21,14.999 L20.7771604,14.9918038 C19.2155344,14.8765913 18,13.5736725 18.0006747,11.9632725 L18.0006747,11.9632725 L18.0081962,11.7771604 C18.1234087,10.2155344 19.4263275,9 21,9 L21,9 L21,7 C21,6.44771525 20.5522847,6 20,6 L20,6 Z M12.0001686,14 C12.5524586,14 13.0001686,14.4477 13.0001686,15 C13.0001686,15.5523 12.5524586,16 12.0001686,16 C11.4478886,16 11.0001686,15.5523 11.0001686,15 C11.0001686,14.4477 11.4478886,14 12.0001686,14 Z M12.0001686,8 C12.5537486,8 13.1555886,8.16344 13.6376686,8.525 C14.1397686,8.90158 14.5001686,9.48991 14.5001686,10.25 C14.5001686,10.69838 14.3847686,11.07994 14.1710686,11.4004 C13.9664386,11.70737 13.7009186,11.91339 13.4787086,12.06154 C13.3700286,12.134 13.2594286,12.20036 13.1657686,12.25656 L13.1657686,12.25656 C13.0591686,12.32052 12.9769786,12.37001 12.9005986,12.42093 C12.7478286,12.52279 12.6695886,12.59803 12.6242286,12.66609 C12.3944886,13.01075 11.9288386,13.10391 11.5841786,12.87417 C11.2395186,12.64442 11.1463586,12.17878 11.3760986,11.83412 C11.5807386,11.52712 11.8462486,11.32107 12.0684786,11.1729 C12.1772086,11.10041 12.2878586,11.03402 12.3815586,10.9778 L12.3815586,10.9778 C12.4880486,10.9139 12.5702386,10.86441 12.6466286,10.81349 C12.7994086,10.71162 12.8776486,10.63639 12.9229986,10.56835 C12.9593586,10.51381 13.0001686,10.42662 13.0001686,10.25 C13.0001686,10.01009 12.9022286,9.84842 12.7376686,9.725 C12.5530786,9.58656 12.2799186,9.5 12.0001686,9.5 C11.6314086,9.5 11.4046986,9.59004 11.2599386,9.68654 C11.1104886,9.78617 11.0014986,9.92438 10.9209886,10.08541 C10.7357486,10.45589 10.2852386,10.60606 9.91475858,10.42082 C9.54426858,10.23558 9.39409858,9.78507 9.57934858,9.41459 C9.74882858,9.07562 10.0148386,8.71383 10.4278886,8.43846 C10.8456386,8.15996 11.3689286,8 12.0001686,8 Z"/>
</svg>

<svg xmlns="http://www.w3.org/2000/svg" viewBox="0 0 24 24">
  <path d="M20 4a3 3 0 0 1 3 3v3a1 1 0 0 1-1 1h-1a1 1 0 0 0-1 .89V12c0 .52.4.96.89 1H22a1 1 0 0 1 1 1v3a3 3 0 0 1-3 3H4a3 3 0 0 1-3-3v-3a1 1 0 0 1 1-1h1a1 1 0 0 0 1-.89V12a1 1 0 0 0-.89-1H2a1 1 0 0 1-1-1V7a3 3 0 0 1 3-3zm0 2H4a1 1 0 0 0-1 1v2h.22A3 3 0 0 1 6 12.05v.18A3 3 0 0 1 3 15v2a1 1 0 0 0 .88 1H20a1 1 0 0 0 1-1v-2h-.22A3 3 0 0 1 18 11.95v-.18A3 3 0 0 1 21 9V7a1 1 0 0 0-1-1zm-8 8a1 1 0 1 1 0 2 1 1 0 0 1 0-2zm0-6c.55 0 1.16.16 1.64.53.5.37.86.96.86 1.72a2.03 2.03 0 0 1-1.02 1.81l-.31.2-.27.16a.96.96 0 0 0-.28.25.75.75 0 0 1-1.24-.84c.2-.3.47-.5.69-.66l.31-.2c.1-.06.19-.1.27-.16.15-.1.23-.17.27-.24a.54.54 0 0 0 .08-.32c0-.24-.1-.4-.26-.53A1.26 1.26 0 0 0 12 9.5c-.37 0-.6.09-.74.19a1 1 0 0 0-.34.4.75.75 0 0 1-1.34-.68c.17-.33.43-.7.85-.97.42-.28.94-.44 1.57-.44z"/>
</svg>
